icons/src/scalable/default/actions/edit-paste-symbolic.svg

<?xml version="1.0" encoding="UTF-8" standalone="no"?>
<svg
   height="16"
   width="16"
   version="1.1"
   id="svg4"
   sodipodi:docname="edit-paste-symbolic.svg"
   inkscape:version="1.2 (1:1.2.1+202207142221+cd75a1ee6d)"
   xmlns:inkscape="http://www.inkscape.org/namespaces/inkscape"
   xmlns:sodipodi="http://sodipodi.sourceforge.net/DTD/sodipodi-0.dtd"
   xmlns="http://www.w3.org/2000/svg"
   xmlns:svg="http://www.w3.org/2000/svg">
  <defs
     id="defs8" />
  <sodipodi:namedview
     id="namedview6"
     pagecolor="#ffffff"
     bordercolor="#666666"
     borderopacity="1.0"
     inkscape:showpageshadow="2"
     inkscape:pageopacity="0.0"
     inkscape:pagecheckerboard="0"
     inkscape:deskcolor="#d1d1d1"
     showgrid="true"
     inkscape:zoom="20.85965"
     inkscape:cx="-3.1160638"
     inkscape:cy="5.7527331"
     inkscape:window-width="1920"
     inkscape:window-height="1011"
     inkscape:window-x="0"
     inkscape:window-y="0"
     inkscape:window-maximized="1"
     inkscape:current-layer="svg4">
    <inkscape:grid
       type="xygrid"
       id="grid237"
       empspacing="5" />
    <inkscape:grid
       type="xygrid"
       id="grid239"
       dotted="true"
       spacingx="0.5"
       spacingy="0.5"
       empspacing="10" />
  </sodipodi:namedview>
  <path
     id="path2"
     style="line-height:normal;text-indent:0;text-align:start;text-decoration-line:none;text-decoration-style:solid;text-decoration-color:#000000;text-transform:none;isolation:auto;mix-blend-mode:normal;marker:none;fill:#808080"
     d="M 7 0 C 5.9010022 0 5 0.9020022 5 2 L 4 2 L 4 2.0253906 C 3.2500014 2.0443906 2.590499 2.0957188 2.0625 2.3867188 C 1.6726555 2.6078902 1.3747676 2.9611992 1.2226562 3.3828125 C 1.0586566 3.8208117 1 4.3430014 1 5 L 1 12 C 1 12.657998 1.0576562 13.179188 1.2226562 13.617188 C 1.386656 14.056186 1.6855008 14.407236 2.0625 14.615234 C 2.589499 14.906234 3.2450016 14.956609 4 14.974609 L 4.2558594 14.974609 C 4.5994741 15.584917 5.2538562 16 6 16 L 12 16 C 13.099349 16 14 15.099349 14 14 L 14 7 C 14 6.2644723 13.596099 5.6188902 13 5.2714844 L 13 5 C 13 4.3420014 12.940389 3.8208117 12.775391 3.3828125 C 12.624002 2.9613791 12.326783 2.6080414 11.9375 2.3867188 C 11.410502 2.0957192 10.748998 2.0443906 10 2.0253906 L 10 2 L 9 2 C 9 0.9020022 8.0989978 0 7 0 z M 7 1 C 7.5579988 1 8 1.4420012 8 2 C 8.00563 2.5545998 7.5545998 3.0056309 7 3 C 6.5967291 3.00545 6.2311253 2.7637846 6.078125 2.390625 C 6.0263321 2.2669182 5.99977 2.1341115 6 2 C 6 1.4420012 6.4420012 1 7 1 z M 4 3.0390625 L 4 4 L 10 4 L 10 3.0390625 C 10.665998 3.0700625 11.204125 3.1237186 11.453125 3.2617188 C 11.637125 3.3617187 11.742844 3.4743756 11.839844 3.734375 C 11.936844 3.9943744 12 4.4080012 12 5 L 6 5 C 4.9006508 5 4 5.9006508 4 7 L 4 13.960938 C 3.3280014 13.930938 2.7958746 13.876278 2.546875 13.738281 C 2.3628754 13.638281 2.2571562 13.525625 2.1601562 13.265625 C 2.0631563 13.005625 2 12.591998 2 12 L 2 5 C 2 4.4080012 2.0631561 3.9943744 2.1601562 3.734375 C 2.2581562 3.4743756 2.3619223 3.3627184 2.5449219 3.2617188 C 2.7939213 3.123719 3.3330014 3.0710625 4 3.0390625 z M 6 6 L 12 6 C 12.562647 6 13 6.4373525 13 7 L 13 14 C 13 14.562647 12.562647 15 12 15 L 6 15 C 5.4373525 15 5 14.562647 5 14 L 5 7 C 5 6.4373525 5.4373525 6 6 6 z M 6 7 L 6 8 L 12 8 L 12 7 L 6 7 z M 6 9 L 6 10 L 12 10 L 12 9 L 6 9 z M 6 11 L 6 12 L 9 12 L 9 11 L 6 11 z " />
</svg>

<svg height="16" width="16" xmlns="http://www.w3.org/2000/svg">
    <path d="M7 0C5.901 0 5 .902 5 2H4v.025c-.75.019-1.41.071-1.938.362a1.878 1.878 0 0 0-.84.996C1.058 3.821 1 4.343 1 5v7c0 .658.058 1.179.223 1.617.164.439.463.79.84.998.527.291 1.182.342 1.937.36V16h10V5h-1c0-.658-.06-1.179-.225-1.617a1.875 1.875 0 0 0-.837-.996c-.527-.291-1.189-.343-1.938-.362V2H9c0-1.098-.901-2-2-2zm0 1c.558 0 1 .442 1 1a.99.99 0 0 1-1 1 .982.982 0 0 1-.922-.61A1.007 1.007 0 0 1 6 2c0-.558.442-1 1-1zM4 3.04V4h6v-.96c.666.031 1.204.084 1.453.222.184.1.29.212.387.472.097.26.16.674.16 1.266H4v8.96c-.672-.03-1.204-.084-1.453-.222-.184-.1-.29-.212-.387-.472C2.063 13.006 2 12.592 2 12V5c0-.592.063-1.006.16-1.266.098-.26.202-.371.385-.472.249-.138.788-.191 1.455-.223zM5 6h8v9H5zm1.008 1v1h6.012V7zm0 2v1h6.012V9zM6 11v1h3v-1z" fill="gray" font-family="sans-serif" font-weight="400" overflow="visible" style="line-height:normal;text-indent:0;text-align:start;text-decoration-line:none;text-decoration-style:solid;text-decoration-color:#000;text-transform:none;isolation:auto;mix-blend-mode:normal;marker:none" white-space="normal" color="#000"/>
</svg>
